public/svgs/twin/anatomy-m0-5.svg

<svg width="100%" height="100%" viewBox="0 0 32 32" fill="none" xmlns="http://www.w3.org/2000/svg">
<path d="M26.5214 9.20302L26.508 9.20035L26.4759 9.18963L26.4571 9.17892L26.433 9.16821L26.4089 9.15482C26.4035 9.15214 26.3982 9.14946 26.3928 9.1441C26.3875 9.13875 26.3768 9.13339 26.3714 9.12803L26.3553 9.11732C26.35 9.11196 26.3419 9.10661 26.3339 9.10125C26.3259 9.09857 26.3232 9.09054 26.3178 9.08786L26.3018 9.07179C26.2937 9.06376 26.2911 9.0584 26.2857 9.05572C26.283 9.04769 26.275 9.04501 26.2723 9.03965L26.2562 9.01555L26.2455 8.99948L26.2295 8.97269C26.2241 8.96734 26.2214 8.96466 26.2214 8.95662L26.208 8.92984C26.2054 8.92449 26.2027 8.91645 26.2 8.9111L26.1893 8.88431C26.1866 8.8736 26.1813 8.86824 26.1813 8.85753L26.1759 8.83878C26.1705 8.82539 26.1705 8.81468 26.1679 8.80129C26.1679 8.79861 26.1679 8.79325 26.1625 8.79057C25.7742 5.83111 23.0504 3.75012 20.0856 4.1465C19.6838 4.20006 19.2901 4.29916 18.9125 4.43843C17.8894 4.81874 17.0056 5.50169 16.3762 6.39355C15.6531 7.41396 15.3076 8.65666 15.3986 9.9074C15.4201 10.1779 15.2165 10.4136 14.946 10.4323H14.9058C14.6461 10.4323 14.4318 10.2315 14.4157 9.97436C14.405 9.8217 14.3997 9.66904 14.3997 9.5137V9.49227L14.3461 9.53513C13.7542 9.95293 13.0445 10.1752 12.3213 10.1725C12.0482 10.1725 11.8285 9.95293 11.8285 9.67975C11.8285 9.40657 12.0482 9.18695 12.3213 9.18695C13.3685 9.18695 14.3247 8.52811 14.6969 7.55055C14.7077 7.52644 14.7184 7.50234 14.7318 7.47823C14.9299 6.8917 15.2085 6.3373 15.5727 5.82576C16.1111 5.06246 16.8101 4.42771 17.6189 3.96438C16.6494 3.55461 15.6075 3.3457 14.555 3.3457C13.2828 3.3457 12.0696 3.63763 10.9501 4.21613C9.89485 4.76517 8.97621 5.53919 8.25844 6.48728C8.15399 6.67744 7.94241 6.77653 7.72815 6.73636L7.71208 6.73368L7.68797 6.72565C5.42754 6.11501 3.09746 7.45681 2.4895 9.7226C2.27256 10.5314 2.29935 11.3858 2.56449 12.1786C2.61806 12.2991 2.61806 12.4383 2.56985 12.5589C1.76905 14.5461 2.73322 16.8039 4.7178 17.6047C4.84368 17.6556 4.96956 17.6984 5.09811 17.7359L5.11418 17.7439C5.1731 17.7627 5.22935 17.7922 5.27755 17.8296C5.43825 16.6378 6.07031 15.5639 7.03448 14.8461C7.2541 14.6854 7.5621 14.7309 7.72547 14.9505C7.88884 15.1702 7.84063 15.4782 7.62102 15.6415C6.09442 16.7664 5.76767 18.9143 6.89254 20.4409C6.94878 20.5186 7.01038 20.5936 7.07466 20.6659C8.22095 21.7506 9.74219 22.3559 11.3197 22.3532C11.8982 22.3532 12.4713 22.2729 13.0204 22.1148C13.0284 22.1122 13.0311 22.1122 13.0364 22.1122C13.8372 21.8792 14.5818 21.4881 15.2299 20.9632C15.2835 20.8828 15.3585 20.8186 15.4468 20.7757C16.1111 20.1811 16.6387 19.4527 16.9976 18.6358C17.035 18.526 17.0779 18.4215 17.1261 18.3198C17.3323 17.7627 17.4582 17.1815 17.4957 16.5869C17.5145 16.3164 17.7475 16.1129 18.018 16.129H18.0206C18.2911 16.1477 18.4947 16.3807 18.4786 16.6512V16.6539C18.4759 16.7209 18.4679 16.7825 18.4626 16.8467C19.5044 16.2307 20.798 16.2281 21.8452 16.8387C22.0835 16.978 22.1612 17.2806 22.0246 17.5136C21.888 17.7493 21.5881 17.8296 21.3551 17.6931C21.3551 17.6931 21.3524 17.6931 21.3524 17.6904C20.2275 17.0315 18.7839 17.4092 18.1251 18.5313C18.093 18.5849 18.0635 18.6412 18.0367 18.7001C17.9992 18.8045 17.9537 18.9063 17.9135 19.0054V19.0134C17.6939 19.5223 17.41 20.0071 17.0752 20.4543C18.9152 20.3124 20.7364 20.8802 22.1692 22.0425C22.9111 22.5648 23.7976 22.8433 24.7055 22.8406C25.1367 22.8406 25.5545 22.7764 25.9643 22.6585C26.0527 22.5916 26.1625 22.5541 26.2723 22.5567C27.0731 22.2568 27.7668 21.7292 28.273 21.0409C28.8407 20.2802 29.1434 19.3536 29.1407 18.4055C29.1434 17.7975 29.0175 17.1949 28.7765 16.6378L28.7684 16.6218C27.9944 14.8568 26.1679 13.7935 24.2502 13.9944C23.9797 14.0212 23.7387 13.823 23.7119 13.5552C23.6851 13.2847 23.8833 13.0436 24.1511 13.0168C26.1759 12.8106 28.1444 13.7534 29.2532 15.4621C29.5585 14.8514 29.7165 14.1792 29.7165 13.4829C29.7165 12.5026 29.4032 11.5733 28.8113 10.7993C28.2408 10.0333 27.4373 9.47085 26.5214 9.20302ZM21.564 22.8139C21.5586 22.8112 21.5559 22.8058 21.5532 22.8058C19.9865 21.5203 17.8867 21.0837 15.937 21.6408C15.4468 22.0506 14.9085 22.3934 14.33 22.6612C15.5513 23.162 16.9413 23.0308 18.0421 22.305C18.2697 22.1577 18.575 22.2193 18.725 22.4469C18.8723 22.6746 18.8107 22.9799 18.5831 23.1299C18.3768 23.2638 18.1599 23.3843 17.9349 23.4861C18.3527 23.778 18.8 24.011 19.2767 24.1878H19.2794C20.5703 24.6672 21.9818 24.7074 23.2968 24.2976C23.6985 24.1744 24.0842 24.0057 24.4511 23.8021C23.42 23.7566 22.4237 23.4191 21.5827 22.8219L21.564 22.8139ZM22.9647 25.4064C22.2228 25.5644 21.4622 25.6046 20.7069 25.5296C21.3336 26.2367 22.038 27.1848 22.4451 28.248C22.5603 28.5533 22.8897 28.7221 23.2057 28.6364C23.5459 28.548 23.7521 28.1998 23.6637 27.8597C23.6503 27.8061 23.6289 27.7579 23.6048 27.7097C23.2325 26.9946 23.0156 26.2099 22.9647 25.4064Z" fill="current"/>
</svg>

<svg xmlns="http://www.w3.org/2000/svg" fill="none" viewBox="0 0 32 32"><path fill="current" d="m26.521 9.203-.013-.003-.032-.01-.019-.011-.024-.01-.024-.014-.016-.01c-.006-.006-.016-.012-.022-.017l-.016-.01q-.008-.008-.021-.017c-.008-.002-.01-.01-.016-.013l-.016-.016c-.008-.008-.01-.014-.016-.016-.003-.008-.011-.011-.014-.016l-.016-.024-.01-.017-.016-.026c-.006-.006-.009-.008-.009-.016l-.013-.027-.008-.019-.01-.027c-.003-.01-.009-.016-.009-.026l-.005-.02q-.006-.018-.008-.037.001-.005-.005-.01c-.389-2.96-3.113-5.04-6.077-4.645a5.417 5.417 0 0 0-3.71 2.247 5.4 5.4 0 0 0-.977 3.514.49.49 0 0 1-.453.525h-.04a.49.49 0 0 1-.49-.458 7 7 0 0 1-.016-.46v-.022l-.054.043a3.5 3.5 0 0 1-2.025.637.492.492 0 1 1 0-.986 2.56 2.56 0 0 0 2.376-1.635q.015-.037.035-.073c.198-.586.477-1.14.84-1.652a6.4 6.4 0 0 1 2.047-1.862 7.9 7.9 0 0 0-3.064-.618 7.8 7.8 0 0 0-3.605.87 8 8 0 0 0-2.692 2.271.5.5 0 0 1-.53.25l-.016-.003-.024-.008A4.24 4.24 0 0 0 2.49 9.723a4.26 4.26 0 0 0 .074 2.456c.054.12.054.26.006.38a3.88 3.88 0 0 0 2.528 5.177l.016.008a.5.5 0 0 1 .164.086 4.46 4.46 0 0 1 1.756-2.984.493.493 0 1 1 .587.795 3.43 3.43 0 0 0-.546 5.025 6.17 6.17 0 0 0 4.245 1.687 6.2 6.2 0 0 0 1.7-.238q.01-.004.016-.003a6.3 6.3 0 0 0 2.194-1.149.55.55 0 0 1 .217-.187 6.2 6.2 0 0 0 1.55-2.14q.056-.164.13-.316a6 6 0 0 0 .369-1.733.493.493 0 0 1 .522-.458h.003c.27.019.474.252.458.522v.003c-.003.067-.011.128-.016.193a3.34 3.34 0 0 1 3.382-.008.493.493 0 0 1-.49.854q-.002 0-.003-.003a2.36 2.36 0 0 0-3.315 1.01c-.038.105-.083.206-.123.305v.008c-.22.51-.504.994-.839 1.441a7.2 7.2 0 0 1 5.094 1.588c.742.523 1.629.801 2.537.799.43 0 .849-.065 1.258-.183a.5.5 0 0 1 .308-.101 4.4 4.4 0 0 0 2.001-1.516c.568-.76.87-1.687.868-2.636a4.4 4.4 0 0 0-.364-1.767l-.009-.016a4.43 4.43 0 0 0-4.518-2.628.492.492 0 0 1-.099-.977 5.43 5.43 0 0 1 5.102 2.445c.305-.61.463-1.283.463-1.98 0-.98-.313-1.909-.905-2.683a4.4 4.4 0 0 0-2.29-1.596m-4.957 13.61q-.007-.005-.01-.007a6.18 6.18 0 0 0-5.617-1.165q-.737.617-1.607 1.02c1.221.501 2.611.37 3.712-.356a.495.495 0 0 1 .683.142.495.495 0 0 1-.142.683 5 5 0 0 1-.648.356q.627.437 1.342.702h.002a6.22 6.22 0 0 0 4.018.11 6 6 0 0 0 1.154-.496 5.36 5.36 0 0 1-2.868-.98zm1.4 2.593a7.4 7.4 0 0 1-2.257.124c.627.707 1.331 1.655 1.738 2.718a.636.636 0 0 0 .76.388.638.638 0 0 0 .4-.926 5.8 5.8 0 0 1-.64-2.304"/></svg>
